app/images/icon/icon-doc.svg

<svg width="34" height="37" viewBox="0 0 34 37" fill="none" xmlns="http://www.w3.org/2000/svg">
<path d="M33.3867 13.0078H30.8574V9.30674L21.5507 0H2.5293V13.0078H0V32.7363H2.5293V37H30.8574V32.7363H33.3867V13.0078ZM22.1855 3.70107L27.1563 8.67188H22.1855V3.70107ZM4.69727 2.16797H20.0176V10.8398H28.6895V13.0078H4.69727V2.16797ZM28.6895 34.832H4.69727V32.7363H28.6895V34.832ZM31.2188 30.5684H2.16797V15.1758H31.2188V30.5684Z" fill="#0037A1"/>
<path d="M11.2734 25.0762V20.668C11.2734 18.8749 9.81458 17.416 8.02148 17.416H4.76953V28.3281H8.02148C9.81458 28.3281 11.2734 26.8693 11.2734 25.0762ZM6.9375 19.584H8.02148C8.61909 19.584 9.10547 20.0704 9.10547 20.668V25.0762C9.10547 25.6738 8.61909 26.1602 8.02148 26.1602H6.9375V19.584Z" fill="#0037A1"/>
<path d="M16.6934 28.3281C18.4865 28.3281 19.9453 26.8693 19.9453 25.0762V20.668C19.9453 18.8749 18.4865 17.416 16.6934 17.416C14.9003 17.416 13.4414 18.8749 13.4414 20.668V25.0762C13.4414 26.8693 14.9003 28.3281 16.6934 28.3281ZM15.6094 20.668C15.6094 20.0704 16.0958 19.584 16.6934 19.584C17.291 19.584 17.7773 20.0704 17.7773 20.668V25.0762C17.7773 25.6738 17.291 26.1602 16.6934 26.1602C16.0958 26.1602 15.6094 25.6738 15.6094 25.0762V20.668Z" fill="#0037A1"/>
<path d="M26.4492 28.3281H27.5332V26.1602H26.4492C25.2537 26.1602 24.2812 25.1877 24.2812 23.9922V21.752C24.2812 20.5565 25.2537 19.584 26.4492 19.584H27.5332V17.416H26.4492C24.0582 17.416 22.1133 19.361 22.1133 21.752V23.9922C22.1133 26.3832 24.0582 28.3281 26.4492 28.3281Z" fill="#0037A1"/>
</svg>

<svg width="34" height="37" fill="none" xmlns="http://www.w3.org/2000/svg">
    <path d="M33.387 13.008h-2.53V9.307L21.551 0H2.529v13.008H0v19.728h2.53V37h28.327v-4.264h2.53V13.008ZM22.186 3.7l4.97 4.97h-4.97v-4.97ZM4.697 2.168h15.32v8.672h8.672v2.168H4.697V2.168ZM28.69 34.832H4.697v-2.096H28.69v2.096Zm2.53-4.264H2.168V15.176h29.05v15.392Z" fill="#0037A1"/>
    <path d="M11.273 25.076v-4.408a3.256 3.256 0 0 0-3.252-3.252H4.77v10.912H8.02a3.256 3.256 0 0 0 3.252-3.252Zm-4.335-5.492H8.02c.598 0 1.084.486 1.084 1.084v4.408c0 .598-.486 1.084-1.084 1.084H6.937v-6.576ZM16.693 28.328a3.256 3.256 0 0 0 3.252-3.252v-4.408a3.256 3.256 0 0 0-3.252-3.252 3.256 3.256 0 0 0-3.252 3.252v4.408a3.256 3.256 0 0 0 3.252 3.252Zm-1.084-7.66c0-.598.487-1.084 1.084-1.084.598 0 1.084.486 1.084 1.084v4.408c0 .598-.486 1.084-1.084 1.084a1.085 1.085 0 0 1-1.084-1.084v-4.408ZM26.45 28.328h1.083V26.16H26.45a2.17 2.17 0 0 1-2.168-2.168v-2.24a2.17 2.17 0 0 1 2.168-2.168h1.084v-2.168H26.45a4.34 4.34 0 0 0-4.336 4.336v2.24a4.34 4.34 0 0 0 4.336 4.336Z" fill="#0037A1"/>
</svg>
